public/apps/atelier-des-idees/src/img/propose_picto_step.svg

<svg xmlns="http://www.w3.org/2000/svg" xmlns:xlink="http://www.w3.org/1999/xlink" width="70" height="70" version="1.1" viewBox="0 0 70 70"><title>Group 35</title><desc>Created with Sketch.</desc><defs><circle id="path-1" cx="31" cy="31" r="31"/><filter id="filter-2" width="122.6%" height="122.6%" x="-11.3%" y="-8.1%" filterUnits="objectBoundingBox"><feOffset dx="0" dy="2" in="SourceAlpha" result="shadowOffsetOuter1"/><feGaussianBlur in="shadowOffsetOuter1" result="shadowBlurOuter1" stdDeviation="2"/><feColorMatrix in="shadowBlurOuter1" type="matrix" values="0 0 0 0 0 0 0 0 0 0 0 0 0 0 0 0 0 0 0.09 0"/></filter></defs><g id="🎀-Site-pages" fill="none" fill-rule="evenodd" stroke="none" stroke-width="1"><g id="ADI---Comment-participer" transform="translate(-232.000000, -657.000000)"><g id="Group-35" transform="translate(236.000000, 659.000000)"><g id="Oval"><use fill="#000" fill-opacity="1" filter="url(#filter-2)" xlink:href="#path-1"/><use fill="#FFF" fill-rule="evenodd" xlink:href="#path-1"/></g><path id="Shape" stroke="#A6C0ED" d="M23.4846598,35.3443709 L29.8285276,35.3443709 L29.8285276,32.6622517 L23.4846598,32.6622517 L23.4846598,35.3443709 Z M23.3953095,29.8013245 L34.4747407,29.8013245 L34.4747407,27.1192053 L23.3953095,27.1192053 L23.3953095,29.8013245 Z M23.3059593,24.4370861 L39.567705,24.4370861 L39.567705,21.7549669 L23.3059593,21.7549669 L23.3059593,24.4370861 Z M42.8736643,34.2983444 L42.8736643,43.086755 C42.8736643,44.1435099 42.0176889,45 40.9615689,45 L21.9120954,45 C20.8559754,45 20,44.1435099 20,43.086755 L20,19.913245 C20,18.8564901 20.8559754,18 21.9120954,18 L40.9615689,18 C42.0176889,18 42.8736643,18.8564901 42.8736643,19.913245 L42.8736643,23.9292715 M48.9477301,25.9443834 C49.0174233,26.0142974 49.0174233,26.1285556 48.9477301,26.1982907 L42.8737,32.2741848 L37.1106088,38.0407411 C37.0838038,38.0677411 37.0480637,38.085443 37.0105366,38.0909861 L33.5812739,38.6147146 C33.5723389,38.6165026 33.5634039,38.6165026 33.5544688,38.6165026 C33.4472485,38.6165026 33.3614723,38.5217344 33.3775553,38.4110523 L33.9011478,34.979549 C33.9065088,34.9419993 33.9243789,34.9080258 33.951184,34.8812046 L42.8737,25.9535026 L45.7883052,23.0369662 C45.8222583,23.0012046 45.8687204,22.9851119 45.9151826,22.9851119 C45.9598577,22.9851119 46.0063198,23.0012046 46.0400942,23.0369662 L48.9477301,25.9443834 Z"/></g></g></g></svg>

<svg xmlns:xlink="http://www.w3.org/1999/xlink" viewBox="0 0 70 70"><defs><circle id="b" cx="31" cy="31" r="31"/><filter id="a" width="122.6%" height="122.6%" x="-11.3%" y="-8.1%" filterUnits="objectBoundingBox"><feOffset dy="2" in="SourceAlpha" result="shadowOffsetOuter1"/><feGaussianBlur in="shadowOffsetOuter1" result="shadowBlurOuter1" stdDeviation="2"/><feColorMatrix in="shadowBlurOuter1" values="0 0 0 0 0 0 0 0 0 0 0 0 0 0 0 0 0 0 0.09 0"/></filter></defs><g fill="none" fill-rule="evenodd" transform="translate(4 2)"><use fill="#000" filter="url(#a)" xlink:href="#b"/><use fill="#FFF" xlink:href="#b"/><path stroke="#A6C0ED" d="M23.485 35.344h6.344v-2.682h-6.344v2.682zm-.09-5.543h11.08V27.12h-11.08v2.682zm-.089-5.364h16.262v-2.682H23.306v2.682zm19.568 9.861v8.789A1.913 1.913 0 0140.962 45h-19.05A1.913 1.913 0 0120 43.087V19.913c0-1.057.856-1.913 1.912-1.913h19.05c1.056 0 1.912.856 1.912 1.913v4.016m6.074 2.015a.18.18 0 010 .254l-6.074 6.076-5.763 5.767a.179.179 0 01-.1.05l-3.43.524c-.009.002-.018.002-.027.002a.179.179 0 01-.176-.206l.523-3.431a.174.174 0 01.05-.099l8.923-8.927 2.914-2.917a.173.173 0 01.127-.052.17.17 0 01.125.052l2.908 2.907z"/></g></svg>
